packages/core/src/svgs/tokens/mono/PRE.svg

<svg width="24" height="24" viewBox="0 0 24 24" fill="none" xmlns="http://www.w3.org/2000/svg">
<path d="M9.49995 14.5H11.3749C13.6499 14.5063 15.1313 12.2125 15.125 10.125C15.1374 8.05004 13.5812 5.73754 11.3749 5.75005H6.375V18.25H9.49995V14.5ZM11.0812 8.87503C11.7687 8.92504 12 9.55002 12 10.125C12 10.6063 11.7875 11.375 11.15 11.375H9.49368V8.87503H11.0812Z" fill="white"/>
<path d="M2 3.14999V20.85C2 21.475 2.525 22 3.14999 22H20.85C21.475 22 22 21.475 22 20.85V3.14999C22 2.525 21.475 2 20.85 2H3.14999C2.525 2 2 2.525 2 3.14999ZM18.5 19.5H5.47498C4.84998 19.5 4.49374 19.1249 4.49374 18.5V5.47498C4.49374 4.84998 4.85624 4.49374 5.47498 4.49374H18.4875C19.1125 4.49374 19.4937 4.84998 19.4937 5.47498V18.4875C19.4937 19.1125 19.1186 19.4937 18.4937 19.4937L18.5 19.5Z" fill="white"/>
<path d="M17.625 15.7498H10.75V18.2498H17.625V15.7498Z" fill="white"/>
</svg>

<svg xmlns="http://www.w3.org/2000/svg" width="24" height="24" fill="none" viewBox="0 0 24 24">
    <path fill="#fff" d="M9.5 14.5h1.875c2.275.006 3.756-2.287 3.75-4.375.012-2.075-1.544-4.387-3.75-4.375h-5v12.5H9.5zm1.581-5.625c.688.05.919.675.919 1.25 0 .481-.213 1.25-.85 1.25H9.494v-2.5z"/>
    <path fill="#fff" d="M2 3.15v17.7c0 .625.525 1.15 1.15 1.15h17.7c.625 0 1.15-.525 1.15-1.15V3.15C22 2.525 21.475 2 20.85 2H3.15C2.525 2 2 2.525 2 3.15M18.5 19.5H5.475c-.625 0-.981-.375-.981-1V5.475c0-.625.362-.981.981-.981h13.013c.625 0 1.006.356 1.006.981v13.013c0 .625-.375 1.006-1 1.006z"/>
    <path fill="#fff" d="M17.625 15.75H10.75v2.5h6.875z"/>
</svg>
